src/svg/unverified.svg

<svg height="16" width="16" xmlns="http://www.w3.org/2000/svg" viewBox="0 0 16 16">
  <path d="M15.67 7.06l-1.08-1.34c-0.17-0.22-0.28-0.48-0.31-0.77l-0.19-1.7c-0.08-0.7-0.63-1.25-1.33-1.33l-1.7-0.19c-0.3-0.03-0.56-0.16-0.78-0.33l-1.34-1.08c-0.55-0.44-1.33-0.44-1.88 0l-1.34 1.08c-0.22 0.17-0.48 0.28-0.77 0.31l-1.7 0.19c-0.7 0.08-1.25 0.63-1.33 1.33l-0.19 1.7c-0.03 0.3-0.16 0.56-0.33 0.78l-1.08 1.34c-0.44 0.55-0.44 1.33 0 1.88l1.08 1.34c0.17 0.22 0.28 0.48 0.31 0.77l0.19 1.7c0.08 0.7 0.63 1.25 1.33 1.33l1.7 0.19c0.3 0.03 0.56 0.16 0.78 0.33l1.34 1.08c0.55 0.44 1.33 0.44 1.88 0l1.34-1.08c0.22-0.17 0.48-0.28 0.77-0.31l1.7-0.19c0.7-0.08 1.25-0.63 1.33-1.33l0.19-1.7c0.03-0.3 0.16-0.56 0.33-0.78l1.08-1.34c0.44-0.55 0.44-1.33 0-1.88zM9 11.5c0 0.28-0.22 0.5-0.5 0.5h-1c-0.27 0-0.5-0.22-0.5-0.5v-1c0-0.28 0.23-0.5 0.5-0.5h1c0.28 0 0.5 0.22 0.5 0.5v1z m1.56-4.89c-0.06 0.17-0.17 0.33-0.3 0.47-0.13 0.16-0.14 0.19-0.33 0.38-0.16 0.17-0.31 0.3-0.52 0.45-0.11 0.09-0.2 0.19-0.28 0.27s-0.14 0.17-0.19 0.27-0.08 0.19-0.11 0.3-0.03 0.13-0.03 0.25H7.13c0-0.22 0-0.31 0.03-0.48 0.03-0.19 0.08-0.36 0.14-0.52 0.06-0.14 0.14-0.28 0.25-0.42 0.11-0.13 0.23-0.25 0.41-0.38 0.27-0.19 0.36-0.3 0.48-0.52s0.2-0.38 0.2-0.59c0-0.27-0.06-0.45-0.2-0.58-0.13-0.13-0.31-0.19-0.58-0.19-0.09 0-0.19 0.02-0.3 0.05s-0.17 0.09-0.25 0.16-0.14 0.11-0.2 0.2-0.09 0.14-0.09 0.28H5.02c0-0.38 0.13-0.56 0.27-0.83 0.16-0.27 0.36-0.5 0.61-0.67s0.55-0.3 0.88-0.38 0.7-0.13 1.09-0.13c0.44 0 0.83 0.05 1.17 0.13 0.34 0.09 0.63 0.22 0.88 0.39 0.23 0.17 0.41 0.38 0.55 0.63 0.13 0.25 0.19 0.55 0.19 0.88 0 0.22 0 0.42-0.08 0.59z" />
</svg>

<?xml version="1.0" encoding="UTF-8" standalone="no"?>
<svg width="16px" height="16px" viewBox="0 0 16 16" version="1.1" xmlns="http://www.w3.org/2000/svg" xmlns:xlink="http://www.w3.org/1999/xlink">
    <!-- Generator: Sketch 3.7.1 (28215) - http://www.bohemiancoding.com/sketch -->
    <title>unverified</title>
    <desc>Created with Sketch.</desc>
    <defs></defs>
    <g id="Octicons" stroke="none" stroke-width="1" fill="none" fill-rule="evenodd">
        <g id="unverified" fill="#000000">
            <path d="M15.67,7.06 L14.59,5.72 C14.42,5.5 14.31,5.24 14.28,4.95 L14.09,3.25 C14.01,2.55 13.46,2 12.76,1.92 L11.06,1.73 C10.76,1.7 10.5,1.57 10.28,1.4 L8.94,0.32 C8.39,-0.12 7.61,-0.12 7.06,0.32 L5.72,1.4 C5.5,1.57 5.24,1.68 4.95,1.71 L3.25,1.9 C2.55,1.98 2,2.53 1.92,3.23 L1.73,4.93 C1.7,5.23 1.57,5.49 1.4,5.71 L0.32,7.05 C-0.12,7.6 -0.12,8.38 0.32,8.93 L1.4,10.27 C1.57,10.49 1.68,10.75 1.71,11.04 L1.9,12.74 C1.98,13.44 2.53,13.99 3.23,14.07 L4.93,14.26 C5.23,14.29 5.49,14.42 5.71,14.59 L7.05,15.67 C7.6,16.11 8.38,16.11 8.93,15.67 L10.27,14.59 C10.49,14.42 10.75,14.31 11.04,14.28 L12.74,14.09 C13.44,14.01 13.99,13.46 14.07,12.76 L14.26,11.06 C14.29,10.76 14.42,10.5 14.59,10.28 L15.67,8.94 C16.11,8.39 16.11,7.61 15.67,7.06 L15.67,7.06 Z M9,11.5 C9,11.78 8.78,12 8.5,12 L7.5,12 C7.23,12 7,11.78 7,11.5 L7,10.5 C7,10.22 7.23,10 7.5,10 L8.5,10 C8.78,10 9,10.22 9,10.5 L9,11.5 L9,11.5 Z M10.56,6.61 C10.5,6.78 10.39,6.94 10.26,7.08 C10.13,7.24 10.12,7.27 9.93,7.46 C9.77,7.63 9.62,7.76 9.41,7.91 C9.3,8 9.21,8.1 9.13,8.18 C9.05,8.26 8.99,8.35 8.94,8.45 C8.89,8.55 8.86,8.64 8.83,8.75 C8.8,8.86 8.8,8.88 8.8,9 L7.13,9 C7.13,8.78 7.13,8.69 7.16,8.52 C7.19,8.33 7.24,8.16 7.3,8 C7.36,7.86 7.44,7.72 7.55,7.58 C7.66,7.45 7.78,7.33 7.96,7.2 C8.23,7.01 8.32,6.9 8.44,6.68 C8.56,6.46 8.64,6.3 8.64,6.09 C8.64,5.82 8.58,5.64 8.44,5.51 C8.31,5.38 8.13,5.32 7.86,5.32 C7.77,5.32 7.67,5.34 7.56,5.37 C7.45,5.4 7.39,5.46 7.31,5.53 C7.23,5.6 7.17,5.64 7.11,5.73 C7.05,5.82 7.02,5.87 7.02,6.01 L5.02,6.01 C5.02,5.63 5.15,5.45 5.29,5.18 C5.45,4.91 5.65,4.68 5.9,4.51 C6.15,4.34 6.45,4.21 6.78,4.13 C7.11,4.05 7.48,4 7.87,4 C8.31,4 8.7,4.05 9.04,4.13 C9.38,4.22 9.67,4.35 9.92,4.52 C10.15,4.69 10.33,4.9 10.47,5.15 C10.6,5.4 10.66,5.7 10.66,6.03 C10.66,6.25 10.66,6.45 10.58,6.62 L10.56,6.61 Z" id="Shape"></path>
        </g>
    </g>
</svg>
